svg/fluentui-system-icons/ic_fluent_text_indent_increase_rtl_24_filled.svg

<svg width="24" height="24" viewBox="0 0 24 24" fill="none" xmlns="http://www.w3.org/2000/svg">
<path d="M15 8H6.5C5.94772 8 5.5 7.55228 5.5 7C5.5 6.48716 5.88604 6.06449 6.38338 6.00673L6.5 6H15C15.5523 6 16 6.44772 16 7C16 7.51284 15.614 7.93551 15.1166 7.99327L15 8H6.5H15ZM21.7071 14.7071C21.3466 15.0676 20.7794 15.0953 20.3871 14.7903L20.2929 14.7071L18.2929 12.7071C17.9324 12.3466 17.9047 11.7794 18.2097 11.3871L18.2929 11.2929L20.2929 9.29289C20.6834 8.90237 21.3166 8.90237 21.7071 9.29289C22.0676 9.65338 22.0953 10.2206 21.7903 10.6129L21.7071 10.7071L20.4142 12L21.7071 13.2929C22.0976 13.6834 22.0976 14.3166 21.7071 14.7071ZM15.0001 13L3.50009 13.0011C2.94781 13.0011 2.5 12.5535 2.5 12.0012C2.5 11.4883 2.88596 11.0656 3.38329 11.0078L3.49991 11.0011L14.9999 11C15.5522 10.9999 16 11.4476 16 11.9999C16 12.5127 15.614 12.9354 15.1167 12.9933L15.0001 13L3.50009 13.0011L15.0001 13ZM15 18H6.5C5.94772 18 5.5 17.5523 5.5 17C5.5 16.4872 5.88604 16.0645 6.38338 16.0067L6.5 16H15C15.5523 16 16 16.4477 16 17C16 17.5128 15.614 17.9355 15.1166 17.9933L15 18H6.5H15Z" fill="#212121"/>
</svg>

<svg xmlns="http://www.w3.org/2000/svg" width="24" height="24"><path d="M15 8H6.5a1 1 0 0 1-.117-1.993L6.5 6H15a1 1 0 0 1 .117 1.993L15 8H6.5 15Zm6.707 6.707a1 1 0 0 1-1.32.083l-.094-.083-2-2a1 1 0 0 1-.083-1.32l.083-.094 2-2a1 1 0 0 1 1.497 1.32l-.083.094L20.414 12l1.293 1.293a1 1 0 0 1 0 1.414ZM15 13l-11.5.001a1 1 0 0 1-.117-1.993L3.5 11H15a1 1 0 0 1 .117 1.993L15 13l-11.5.001L15 13Zm0 5H6.5a1 1 0 0 1-.117-1.993L6.5 16H15a1 1 0 0 1 .117 1.993L15 18H6.5 15Z"/></svg>
